libs/icons/src/svg/circle-9.svg

<svg width="16" height="16" viewBox="0 0 16 16" fill="none" xmlns="http://www.w3.org/2000/svg">
<g clip-path="url(#clip0_4_388)">
<path fill-rule="evenodd" clip-rule="evenodd" d="M16 8C16 12.4183 12.4183 16 8 16C3.58172 16 0 12.4183 0 8C0 3.58172 3.58172 0 8 0C12.4183 0 16 3.58172 16 8ZM14.6666 8.00002C14.6666 11.6819 11.6819 14.6667 7.99995 14.6667C4.31806 14.6667 1.33329 11.6819 1.33329 8.00002C1.33329 4.31812 4.31806 1.33335 7.99995 1.33335C11.6819 1.33335 14.6666 4.31812 14.6666 8.00002ZM5.36003 6.68089C5.36003 5.24453 6.41934 4.1493 8.01371 4.16007C9.42494 4.16725 10.8182 5.03266 10.8218 7.71148C10.8254 10.2431 9.70144 11.7153 7.9383 11.7153C6.54503 11.7153 5.58266 10.8284 5.43184 9.61107H6.74253C6.87539 10.1964 7.30271 10.5627 7.9383 10.5627C8.95453 10.5627 9.52548 9.62544 9.52907 8.05262H9.4788C9.1233 8.68462 8.43384 9.06885 7.64025 9.06885C6.35112 9.06885 5.36362 8.06698 5.36003 6.68089ZM9.38185 6.64139C9.38185 5.89089 8.80371 5.23735 8.0173 5.23735C7.23807 5.23735 6.65275 5.86216 6.65275 6.65216C6.65634 7.43857 7.22012 8.05621 8.00294 8.05621C8.77857 8.05621 9.38544 7.40266 9.38185 6.64139Z" fill="#202327"/>
</g>
<defs>
<clipPath id="clip0_4_388">
<rect width="16" height="16" fill="white"/>
</clipPath>
</defs>
</svg>

<svg xmlns="http://www.w3.org/2000/svg" viewBox="0 0 16 16" class="sageicon"><path fill-rule="evenodd" d="M16 8A8 8 0 1 1 0 8a8 8 0 0 1 16 0Zm-1.333 0A6.667 6.667 0 1 1 1.333 8a6.667 6.667 0 0 1 13.334 0ZM5.36 6.68c0-1.435 1.06-2.53 2.654-2.52 1.41.007 2.804.873 2.808 3.551.003 2.532-1.12 4.004-2.884 4.004-1.393 0-2.355-.887-2.506-2.104h1.31c.133.585.56.952 1.196.952 1.017 0 1.587-.938 1.591-2.51h-.05c-.356.632-1.045 1.016-1.839 1.016-1.289 0-2.276-1.002-2.28-2.388Zm4.022-.039c0-.75-.578-1.404-1.365-1.404-.779 0-1.364.625-1.364 1.415.003.787.567 1.404 1.35 1.404.776 0 1.382-.653 1.379-1.415Z"/></svg>
